X: 26
T: Castle Kelly
Z: Yoann
S: https://thesession.org/tunes/21#setting51998
R: reel
M: 4/4
L: 1/8
K: Amin
|:A2 cA ~A2 cA|GE ~E2 GEEG|A2 cA GAcd|ecdB cAAG|
A2 cA ~A2 cA|GE ~E2 GEEG|A2 cA GAcd|ecdB cA A2:|
|:agec d2 ed|cAGE G2 eg|agec d2 cd|eaag a2 ab|
agec d2 ed|cAGE G2 EG|A2 cA GAcd|ecdB cA A2:|

